X: 6568
T: Catherine's
R: mazurka
M: 3/4
K: Dmajor
ed|:cA A2 (3Bcd|BG G2 (3Bcd|ef ge fg|fd d2 ed|
cA A2 (3Bcd|BG G2 (3Bcd|ef ge fg|1 d2 d2 ed:|2 d2 d2 ef||
|:ge e2 ag|fd d2 ef|gf ea ge|fd d2 ef|
ge ea ag|fd d2 ef|gf ea ge|1 d2 d2 ef:|2 d2 d2 ed||

